src/assets/notes.svg

<svg width="15" height="16" viewBox="0 0 15 16" fill="none" xmlns="http://www.w3.org/2000/svg">
<g clip-path="url(#clip0_97_846)">
<path fill-rule="evenodd" clip-rule="evenodd" d="M4.2 1.5H4.17741H4.1774C3.86936 1.49999 3.60368 1.49998 3.38609 1.52067C3.15576 1.54257 2.92825 1.59113 2.71625 1.72104C2.51442 1.84472 2.34473 2.01442 2.22104 2.21625C2.09113 2.42825 2.04257 2.65576 2.02067 2.88609C1.99998 3.10367 1.99999 3.36935 2 3.67738V3.6774V3.7V12.3V12.3226V12.3226C1.99999 12.6307 1.99998 12.8963 2.02067 13.1139C2.04257 13.3442 2.09113 13.5717 2.22104 13.7837C2.34473 13.9856 2.51442 14.1553 2.71625 14.279C2.92825 14.4089 3.15576 14.4574 3.38609 14.4793C3.60368 14.5 3.86937 14.5 4.17741 14.5H4.2H10.8H10.8226C11.1306 14.5 11.3963 14.5 11.6139 14.4793C11.8442 14.4574 12.0717 14.4089 12.2837 14.279C12.4856 14.1553 12.6553 13.9856 12.779 13.7837C12.9089 13.5717 12.9574 13.3442 12.9793 13.1139C13 12.8963 13 12.6306 13 12.3226V12.3V3.7V3.67741C13 3.36936 13 3.10368 12.9793 2.88609C12.9574 2.65576 12.9089 2.42825 12.779 2.21625C12.6553 2.01442 12.4856 1.84472 12.2837 1.72104C12.0717 1.59113 11.8442 1.54257 11.6139 1.52067C11.3963 1.49998 11.1306 1.49999 10.8226 1.5H10.8H4.2ZM3.23875 2.57368C3.26722 2.55623 3.32362 2.53112 3.48075 2.51618C3.64532 2.50053 3.86298 2.5 4.2 2.5H10.8C11.137 2.5 11.3547 2.50053 11.5193 2.51618C11.6764 2.53112 11.7328 2.55623 11.7613 2.57368C11.8285 2.61491 11.8851 2.67147 11.9263 2.73875C11.9438 2.76722 11.9689 2.82362 11.9838 2.98075C11.9995 3.14532 12 3.36298 12 3.7V12.3C12 12.637 11.9995 12.8547 11.9838 13.0193C11.9689 13.1764 11.9438 13.2328 11.9263 13.2613C11.8851 13.3285 11.8285 13.3851 11.7613 13.4263C11.7328 13.4438 11.6764 13.4689 11.5193 13.4838C11.3547 13.4995 11.137 13.5 10.8 13.5H4.2C3.86298 13.5 3.64532 13.4995 3.48075 13.4838C3.32362 13.4689 3.26722 13.4438 3.23875 13.4263C3.17147 13.3851 3.11491 13.3285 3.07368 13.2613C3.05624 13.2328 3.03112 13.1764 3.01618 13.0193C3.00053 12.8547 3 12.637 3 12.3V3.7C3 3.36298 3.00053 3.14532 3.01618 2.98075C3.03112 2.82362 3.05624 2.76722 3.07368 2.73875C3.11491 2.67147 3.17147 2.61491 3.23875 2.57368ZM5 10.5C4.72386 10.5 4.5 10.7239 4.5 11C4.5 11.2761 4.72386 11.5 5 11.5H8C8.27614 11.5 8.5 11.2761 8.5 11C8.5 10.7239 8.27614 10.5 8 10.5H5ZM4.5 8C4.5 7.72386 4.72386 7.5 5 7.5H10C10.2761 7.5 10.5 7.72386 10.5 8C10.5 8.27614 10.2761 8.5 10 8.5H5C4.72386 8.5 4.5 8.27614 4.5 8ZM5 4.5C4.72386 4.5 4.5 4.72386 4.5 5C4.5 5.27614 4.72386 5.5 5 5.5H10C10.2761 5.5 10.5 5.27614 10.5 5C10.5 4.72386 10.2761 4.5 10 4.5H5Z" fill="#131D16"/>
</g>
<defs>
<clipPath id="clip0_97_846">
<rect width="15" height="15" fill="white" transform="translate(0 0.5)"/>
</clipPath>
</defs>
</svg>

<svg xmlns="http://www.w3.org/2000/svg" width="15" height="16" fill="none" viewBox="0 0 15 16">
    <path fill="#131D16" fill-rule="evenodd" d="M4.2 1.5h-.023c-.308 0-.573 0-.79.02a1.527 1.527 0 0 0-.67.201 1.5 1.5 0 0 0-.496.495 1.52 1.52 0 0 0-.2.67C2 3.104 2 3.37 2 3.677v8.646c0 .308 0 .573.02.79.023.231.071.459.201.67a1.5 1.5 0 0 0 .495.496c.212.13.44.178.67.2.218.021.483.021.791.021h6.646c.308 0 .573 0 .79-.02.231-.023.459-.071.67-.201a1.5 1.5 0 0 0 .496-.495c.13-.212.178-.44.2-.67.021-.218.021-.483.021-.791V3.677c0-.308 0-.573-.02-.79a1.519 1.519 0 0 0-.201-.67 1.5 1.5 0 0 0-.495-.496 1.519 1.519 0 0 0-.67-.2c-.218-.021-.483-.021-.791-.021H4.2Zm-.961 1.074c.028-.018.085-.043.242-.058.164-.015.382-.016.719-.016h6.6c.337 0 .555 0 .72.016.156.015.213.04.241.058a.5.5 0 0 1 .165.165c.018.028.043.085.058.242.015.164.016.382.016.719v8.6c0 .337 0 .555-.016.72-.015.156-.04.213-.058.241a.5.5 0 0 1-.165.165c-.028.018-.085.043-.242.058a8.534 8.534 0 0 1-.719.016H4.2c-.337 0-.555 0-.72-.016-.156-.015-.213-.04-.241-.058a.5.5 0 0 1-.165-.165c-.018-.028-.043-.085-.058-.242A8.558 8.558 0 0 1 3 12.3V3.7c0-.337 0-.555.016-.72.015-.156.04-.213.058-.241a.5.5 0 0 1 .165-.165ZM5 10.5a.5.5 0 0 0 0 1h3a.5.5 0 0 0 0-1H5ZM4.5 8a.5.5 0 0 1 .5-.5h5a.5.5 0 0 1 0 1H5a.5.5 0 0 1-.5-.5ZM5 4.5a.5.5 0 0 0 0 1h5a.5.5 0 0 0 0-1H5Z" clip-rule="evenodd" />
</svg>
